icon-themes/elementary_svg/cmd/sc_mailmergewizard.svg

<svg height="16" width="16" xmlns="http://www.w3.org/2000/svg" xmlns:xlink="http://www.w3.org/1999/xlink"><linearGradient id="a" gradientTransform="matrix(.46574 0 0 .48509 .82234 1.5316)" gradientUnits="userSpaceOnUse" x1="23.783" x2="23.904" xlink:href="#b" y1="28.666" y2="16.007"/><linearGradient id="b"><stop offset="0" stop-color="#1e1e1e"/><stop offset="1" stop-color="#1e1e1e" stop-opacity="0"/></linearGradient><linearGradient id="c" gradientTransform="matrix(.46574 0 0 .48509 .82234 -4.1022)" gradientUnits="userSpaceOnUse" x1="23.929" x2="23.929" xlink:href="#b" y1="30.773" y2="45.531"/><linearGradient id="d" gradientTransform="matrix(.44186 0 0 .46429 1.3953 .30357)" gradientUnits="userSpaceOnUse" x1="25.577" x2="25.577" y1="15" y2="44.001"><stop offset="0" stop-color="#fff"/><stop offset="1" stop-color="#fff" stop-opacity="0"/></linearGradient><linearGradient id="e" gradientTransform="matrix(.46667 0 0 .45455 .8 1.2727)" gradientUnits="userSpaceOnUse" x1="20.053" x2="19.875" y1="8.1634" y2="45.6"><stop offset="0" stop-color="#fff"/><stop offset=".87427" stop-color="#cfcfcf"/><stop offset="1" stop-color="#999"/></linearGradient><linearGradient id="f" gradientTransform="matrix(.46667 0 0 .50064 .8 -.77855)" gradientUnits="userSpaceOnUse" x1="28.103" x2="28.103" y1="45" y2="14.038"><stop offset="0" stop-color="#727272"/><stop offset="1" stop-color="#bebebe"/></linearGradient><linearGradient id="g" gradientTransform="matrix(-.46574 0 0 .48509 17.075 -4.0638)" gradientUnits="userSpaceOnUse" x1="23.929" x2="23.929" xlink:href="#b" y1="30.773" y2="45.531"/><linearGradient id="h" gradientTransform="matrix(.28571361 0 0 .30419701 1.142873 .232605)" gradientUnits="userSpaceOnUse" x1="25.132275" x2="25.132275" y1=".985206" y2="47.013336"><stop offset="0" stop-color="#f4f4f4"/><stop offset="1" stop-color="#dbdbdb"/></linearGradient><linearGradient id="i" gradientTransform="matrix(.24324324 0 0 .35135133 2.162164 -.432428)" gradientUnits="userSpaceOnUse" x1="23.99999" x2="23.99999" y1="6.205239" y2="41.589603"><stop offset="0" stop-color="#fff"/><stop offset=".02929282" stop-color="#fff" stop-opacity=".235294"/><stop offset=".97230476" stop-color="#fff" stop-opacity=".156863"/><stop offset="1" stop-color="#fff" stop-opacity=".392157"/></linearGradient><linearGradient id="j" gradientTransform="matrix(.25378586 0 0 .30501865 19.128979 -.685477)" gradientUnits="userSpaceOnUse" x1="-51.786404" x2="-51.786404" y1="50.786446" y2="2.906247"><stop offset="0" stop-opacity=".339506"/><stop offset="1" stop-opacity=".246914"/></linearGradient><g transform="translate(-2.000001)"><path d="m3 1c2.2915074 0 9.999988.0008904 9.999988.0008904l.000012 13.9991096s-6.6666668 0-10 0c0-4.666666 0-9.3333336 0-14z" fill="url(#h)"/><g fill="none"><path d="m12.5 14.5h-9.0000001v-13h9.0000001z" stroke="url(#i)" stroke-linecap="round"/><path d="m2.4999621.49997396c2.5206756 0 11.0000629.000954 11.0000629.000954l.000013 14.99909804s-7.3333841 0-11.000076 0c0-5.000017 0-10.000035.0000001-15.00005204z" stroke="url(#j)" stroke-linejoin="round" stroke-width=".999922"/></g></g><g transform="translate(-1 -2.9577)"><rect fill="url(#e)" fill-rule="evenodd" height="9.9507" rx=".46667" ry=".45455" stroke="url(#f)" stroke-linecap="square" stroke-linejoin="round" width="14.965" x="1.507" y="8.507"/><g fill="none"><rect height="7.9859" opacity=".4" rx=".036476" ry=".035005" stroke="url(#d)" stroke-linecap="square" width="12.915" x="2.5" y="9.4718"/><path d="m6.6224 14.013-4.5002 3.4556" opacity=".5" stroke="url(#c)"/><path d="m1.8492 9.1459 7.1508 6.1361 6.937-6.1361" opacity=".5" stroke="url(#a)"/><path d="m11.274 14.051 4.5002 3.4556" opacity=".5" stroke="url(#g)"/></g></g></svg>

<?xml version="1.0" encoding="UTF-8" standalone="no"?>
<!-- Created with Inkscape (http://www.inkscape.org/) -->

<svg
   xmlns:dc="http://purl.org/dc/elements/1.1/"
   xmlns:cc="http://creativecommons.org/ns#"
   xmlns:rdf="http://www.w3.org/1999/02/22-rdf-syntax-ns#"
   xmlns:svg="http://www.w3.org/2000/svg"
   xmlns="http://www.w3.org/2000/svg"
   xmlns:xlink="http://www.w3.org/1999/xlink"
   xmlns:sodipodi="http://sodipodi.sourceforge.net/DTD/sodipodi-0.dtd"
   xmlns:inkscape="http://www.inkscape.org/namespaces/inkscape"
   id="svg2"
   height="16"
   width="16"
   version="1.0"
   sodipodi:docname="sc_mailmergewizard.svg"
   inkscape:version="0.92.3 (unknown)"
   inkscape:export-filename="/home/rizmut/Dokumen/Rizmut/Github/libreoffice-style-elementary/images_elementary/cmd/sc_mailmergewizard.png"
   inkscape:export-xdpi="96"
   inkscape:export-ydpi="96">
  <metadata
     id="metadata32">
    <rdf:RDF>
      <cc:Work
         rdf:about="">
        <dc:format>image/svg+xml</dc:format>
        <dc:type
           rdf:resource="http://purl.org/dc/dcmitype/StillImage" />
      </cc:Work>
    </rdf:RDF>
  </metadata>
  <sodipodi:namedview
     pagecolor="#ffffff"
     bordercolor="#666666"
     borderopacity="1"
     objecttolerance="10"
     gridtolerance="10"
     guidetolerance="10"
     inkscape:pageopacity="0"
     inkscape:pageshadow="2"
     inkscape:window-width="1366"
     inkscape:window-height="706"
     id="namedview30"
     showgrid="true"
     inkscape:zoom="14.75"
     inkscape:cx="-0.71186441"
     inkscape:cy="8"
     inkscape:window-x="0"
     inkscape:window-y="0"
     inkscape:window-maximized="1"
     inkscape:current-layer="layer1">
    <inkscape:grid
       type="xygrid"
       id="grid839" />
  </sodipodi:namedview>
  <defs
     id="defs4">
    <linearGradient
       id="linearGradient2466"
       y2="16.007"
       xlink:href="#linearGradient3495-841-851-719"
       gradientUnits="userSpaceOnUse"
       x2="23.904"
       gradientTransform="matrix(0.46574,0,0,0.48509,0.82234,1.5316)"
       y1="28.666"
       x1="23.783" />
    <linearGradient
       id="linearGradient3495-841-851-719">
      <stop
         id="stop4120"
         style="stop-color:#1e1e1e"
         offset="0" />
      <stop
         id="stop4122"
         style="stop-color:#1e1e1e;stop-opacity:0"
         offset="1" />
    </linearGradient>
    <linearGradient
       id="linearGradient2469"
       y2="45.531"
       xlink:href="#linearGradient3495-841-851-719"
       gradientUnits="userSpaceOnUse"
       x2="23.929"
       gradientTransform="matrix(0.46574,0,0,0.48509,0.82234,-4.1022)"
       y1="30.773"
       x1="23.929" />
    <linearGradient
       id="linearGradient2472"
       y2="44.001"
       gradientUnits="userSpaceOnUse"
       x2="25.577"
       gradientTransform="matrix(0.44186,0,0,0.46429,1.3953,0.30357)"
       y1="15"
       x1="25.577">
      <stop
         id="stop4102"
         style="stop-color:#fff"
         offset="0" />
      <stop
         id="stop4104"
         style="stop-color:#fff;stop-opacity:0"
         offset="1" />
    </linearGradient>
    <linearGradient
       id="linearGradient2908"
       y2="45.6"
       gradientUnits="userSpaceOnUse"
       x2="19.875"
       gradientTransform="matrix(0.46667,0,0,0.45455,0.8,1.2727)"
       y1="8.1634"
       x1="20.053">
      <stop
         id="stop4498"
         style="stop-color:#fff"
         offset="0" />
      <stop
         id="stop4502"
         style="stop-color:#cfcfcf"
         offset=".87427" />
      <stop
         id="stop4504"
         style="stop-color:#999"
         offset="1" />
    </linearGradient>
    <linearGradient
       id="linearGradient2910"
       y2="14.038"
       gradientUnits="userSpaceOnUse"
       x2="28.103"
       gradientTransform="matrix(0.46667,0,0,0.50064,0.8,-0.77855)"
       y1="45"
       x1="28.103">
      <stop
         id="stop4108"
         style="stop-color:#727272"
         offset="0" />
      <stop
         id="stop4110"
         style="stop-color:#bebebe"
         offset="1" />
    </linearGradient>
    <linearGradient
       id="linearGradient2883"
       y2="45.531"
       xlink:href="#linearGradient3495-841-851-719"
       gradientUnits="userSpaceOnUse"
       x2="23.929"
       gradientTransform="matrix(-0.46574,0,0,0.48509,17.075,-4.0638)"
       y1="30.773"
       x1="23.929" />
    <linearGradient
       id="linearGradient2869"
       y2="32.485"
       gradientUnits="userSpaceOnUse"
       x2="24.104"
       gradientTransform="matrix(.32803 0 0 .32571 4.445 11.532)"
       y1="15.169"
       x1="24.104">
      <stop
         id="stop3947-0"
         style="stop-color:#ecf5b6"
         offset="0" />
      <stop
         id="stop3949"
         style="stop-color:#9fba48"
         offset="1" />
    </linearGradient>
    <linearGradient
       gradientTransform="matrix(0.28571361,0,0,0.30419701,1.1428727,0.2326048)"
       gradientUnits="userSpaceOnUse"
       xlink:href="#linearGradient3600"
       id="linearGradient3806"
       y2="47.013336"
       x2="25.132275"
       y1="0.98520643"
       x1="25.132275" />
    <linearGradient
       id="linearGradient3600">
      <stop
         offset="0"
         style="stop-color:#f4f4f4;stop-opacity:1"
         id="stop3602" />
      <stop
         offset="1"
         style="stop-color:#dbdbdb;stop-opacity:1"
         id="stop3604" />
    </linearGradient>
    <linearGradient
       gradientTransform="matrix(0.24324324,0,0,0.35135133,2.1621636,-0.43242804)"
       gradientUnits="userSpaceOnUse"
       xlink:href="#linearGradient3977"
       id="linearGradient3988"
       y2="41.589603"
       x2="23.99999"
       y1="6.2052388"
       x1="23.99999" />
    <linearGradient
       id="linearGradient3977">
      <stop
         offset="0"
         style="stop-color:#ffffff;stop-opacity:1"
         id="stop3979" />
      <stop
         offset="0.02929282"
         style="stop-color:#ffffff;stop-opacity:0.23529412"
         id="stop3981" />
      <stop
         offset="0.97230476"
         style="stop-color:#ffffff;stop-opacity:0.15686275"
         id="stop3983" />
      <stop
         offset="1"
         style="stop-color:#ffffff;stop-opacity:0.39215687"
         id="stop3985" />
    </linearGradient>
    <linearGradient
       gradientTransform="matrix(0.25378586,0,0,0.30501865,19.128979,-0.68547704)"
       gradientUnits="userSpaceOnUse"
       xlink:href="#linearGradient3104-9"
       id="linearGradient3019"
       y2="2.9062471"
       x2="-51.786404"
       y1="50.786446"
       x1="-51.786404" />
    <linearGradient
       id="linearGradient3104-9">
      <stop
         offset="0"
         style="stop-color:#000000;stop-opacity:0.33950618"
         id="stop3106-5" />
      <stop
         offset="1"
         style="stop-color:#000000;stop-opacity:0.24691358"
         id="stop3108-5" />
    </linearGradient>
  </defs>
  <g
     id="layer1"
     transform="translate(-1 -7)">
    <g
       transform="translate(-1.000001,7)"
       id="g858">
      <path
         inkscape:connector-curvature="0"
         style="display:inline;fill:url(#linearGradient3806);fill-opacity:1;stroke:none"
         id="path4160"
         d="m 3,1 c 2.2915074,0 9.999988,8.904e-4 9.999988,8.904e-4 L 13,15 C 13,15 6.3333332,15 3,15 3,10.333334 3,5.6666664 3,1 Z" />
      <path
         inkscape:connector-curvature="0"
         style="fill:none;stroke:url(#linearGradient3988);stroke-width:1;stroke-linecap:round;stroke-linejoin:miter;stroke-miterlimit:4;stroke-dasharray:none;stroke-dashoffset:0;stroke-opacity:1"
         id="rect6741-1"
         d="M 12.5,14.5 H 3.4999999 V 1.5 H 12.5 Z" />
      <path
         inkscape:connector-curvature="0"
         style="display:inline;fill:none;stroke:url(#linearGradient3019);stroke-width:0.99992192;stroke-linecap:butt;stroke-linejoin:round;stroke-miterlimit:4;stroke-dasharray:none;stroke-dashoffset:0;stroke-opacity:1"
         id="path4160-8"
         d="m 2.4999621,0.49997396 c 2.5206756,0 11.0000629,9.54e-4 11.0000629,9.54e-4 l 1.3e-5,14.99909804 c 0,0 -7.3333841,0 -11.000076,0 0,-5.000017 0,-10.000035 10e-8,-15.00005204 z" />
    </g>
    <g
       id="g846"
       transform="translate(0,4.0423002)">
      <rect
         x="1.507"
         y="8.507"
         width="14.965"
         height="9.9506998"
         ry="0.45455"
         rx="0.46667001"
         style="fill:url(#linearGradient2908);fill-rule:evenodd;stroke:url(#linearGradient2910);stroke-linecap:square;stroke-linejoin:round"
         id="rect2396" />
      <rect
         x="2.5"
         y="9.4717999"
         width="12.915"
         height="7.9858999"
         ry="0.035004999"
         rx="0.036476001"
         style="opacity:0.4;fill:none;stroke:url(#linearGradient2472);stroke-linecap:square"
         id="rect3331" />
      <path
         d="M 6.6224,14.013 2.1222,17.4686"
         style="opacity:0.5;fill:none;stroke:url(#linearGradient2469)"
         id="path3341"
         inkscape:connector-curvature="0" />
      <path
         d="M 1.8492,9.1459 9,15.282 15.937,9.1459"
         style="opacity:0.5;fill:none;stroke:url(#linearGradient2466)"
         id="path3493"
         inkscape:connector-curvature="0" />
      <path
         d="m 11.274,14.051 4.5002,3.4556"
         style="opacity:0.5;fill:none;stroke:url(#linearGradient2883)"
         id="path2881"
         inkscape:connector-curvature="0" />
    </g>
  </g>
</svg>
